svgs/light/subscript.svg

<svg xmlns="http://www.w3.org/2000/svg" viewBox="0 0 512 512"><!--! Font Awesome Pro 6.3.0 by @fontawesome - https://fontawesome.com License - https://fontawesome.com/license (Commercial License) Copyright 2023 Fonticons, Inc. --><path d="M336 96C344.8 96 352 88.84 352 80S344.8 64 336 64L288 64.01c-5.469 0-10.56 2.79-13.5 7.399L176 226.2L77.5 71.41C74.56 66.8 69.47 64.01 64 64.01L16 64C7.156 64 0 71.16 0 80S7.156 96 16 96h39.22l101.8 160l-101.8 160H16C7.156 416 0 423.2 0 432S7.156 448 16 448L64 448c5.469 0 10.56-2.804 13.5-7.414L176 285.8l98.5 154.8c2.938 4.609 8.031 7.414 13.5 7.414L336 448c8.844 0 16-7.156 16-16S344.8 416 336 416h-39.22L194.1 256l101.8-160H336zM496 480h-32v-144c0-8.844-7.156-16-16-16h-32c-8.844 0-16 7.156-16 16S407.2 352 416 352h16v128h-32c-8.844 0-16 7.156-16 16s7.156 16 16 16h96c8.844 0 16-7.156 16-16S504.8 480 496 480z"/></svg>

<svg xmlns="http://www.w3.org/2000/svg" viewBox="0 0 512 512"><!-- Font Awesome Pro 6.0.0-alpha2 by @fontawesome - https://fontawesome.com License - https://fontawesome.com/license (Commercial License) --><path d="M336 96C344.844 96 352 88.844 352 80S344.844 64 336 64H288C282.531 64 277.438 66.797 274.5 71.406L176 226.195L77.5 71.406C74.562 66.797 69.469 64 64 64H16C7.156 64 0 71.156 0 80S7.156 96 16 96H55.219L157.035 256L55.219 416H16C7.156 416 0 423.156 0 432S7.156 448 16 448H64C69.469 448 74.562 445.203 77.5 440.594L176 285.805L274.5 440.594C277.438 445.203 282.531 448 288 448H336C344.844 448 352 440.844 352 432S344.844 416 336 416H296.781L194.965 256L296.781 96H336ZM496 480H464V336C464 327.156 456.844 320 448 320H416C407.156 320 400 327.156 400 336S407.156 352 416 352H432V480H400C391.156 480 384 487.156 384 496S391.156 512 400 512H496C504.844 512 512 504.844 512 496S504.844 480 496 480Z"/></svg>
